X: 2331
T: Bag Of Spuds, The
R: reel
M: 4/4
K: Adorian
A2eA cAeA|ABcd egdB|G2BG dgBA|GBBA GBdB|
A2eA (3cBA eA|ABcd egdB|G2Bd egge|dB (3GAB (3BAG dB|
A2eA cAeA|ABcd egdB|GBGB dgBA|GBBA GBdB|
A2eA (3cBA eA|ABcd egdB|G2Bd egge|dBGA BA~a2||
a2ea ageg|a2ab agef|(3gfe d^c BG (3GBd|gfga (3bag eg|
a2ea ageg|agbg ageg|d2de ~g2ge|dB (3GAB BA~a2|
a3a agea|(3bag ab agef|(3gfe d^c BGBd|gfga (3bag eg|
ed (3efg a2ab|ba (3bag aged|bdef g2ge|dBGA AGdB||

